X:1
T:Sing, My Soul!
T:William James Kirkpatrick
T:Sing, My Soul!
T:Public Domain
T:Public Domain
C:William James Kirkpatrick
Z:Public Domain
%%score ( 1 2 ) ( 3 4 )
L:1/8
M:4/4
K:G
V:1 treble 
V:2 treble 
V:3 bass 
V:4 bass 
V:1
 D2 [DG]2 [GB]3 [DA] | [DG]>D [DG][GB] [Gd]2 [GB]2 | [FA]2 [FA]2 [FA]3 [DG] | %3
w: 1.~Sing, my soul! pro-|the ho- ly rap- ture Burst-|now from ev- ery|
w: 2.~Sing, my soul! the|where- on thou stand- est, Firm,|moved, thy an- chored|
w: 3.~Hark, my soul! from|ant realms e- ter- nal, Borne|light on faith’s ce-|
w: 4.~Look, my soul! the|row’s dawn is break- ing; Hail,|hail, thy heav’n on|
 [GB]>[GB] [GB][FA] [DG]4 | D2 [DG]2 [GB]3 [DA] | [DG]>D [DG][GB] [Gd]2 [GB]2 | %6
w: chord of thine; An- gel|choirs, their high- est|bers wak- ing, Ne- ver told|
w: hope shall keep; He, thy|Lord, still walk- ing|the bil- low, Calms the trou-|
w: les- tial wing, Love’s glad|songs to thee are|ly waft- ed, Songs that by|
w: earth be- gun! He, the|Lord, such heights of|re- veal- ing, Holds the bless-|
 [EA]>[EA] [EA][EA] [EA]2 [EB]>[EA] | [DG]2 [DF]2 [DG]4 ||"^Refrain" [FA]2 [DF]>[FA] [Fd]3 [Fc] | %9
w: bliss of a joy like mine. *|||
w: wave like a child to sleep. Saved|and re- deemed,|thro’ sim- ple faith in|
w: by thou wilt learn to sing. *|||
w: crown that will soon be won. *|||
 [GB]>[DA] [DG][DA] | [GB]2 [DG]2 | [FA]2 [DF]>[FA] [Fd]3 [Ge] | [Fd]>[E^c] [GB][Gc] [Fd]4 | %13
w: ||||
w: Je- sus! Now I|am His,|and He a- bides in|me; Saved and re- deemed!|
w: ||||
w: ||||
 [Gd]2 [GB]>[Gc] [Gd]3 [Gc] | [GB]>[DA] [DG][DA] [GB]2 [DG]2 | %15
w: ||
w: Oh, shout a- loud the|sto- ry; Hid with Him for-|
w: ||
w: ||
 [EG]>[EG] [DF][CE] [B,D][B,D][B,G][Cc] | [DB]2 [DA]2 [DG]4 |] %17
w: ||
w: ev- er- more my life shall be. *||
w: ||
w: ||
V:2
 D2 x6 | x3/2 D/ x6 | x8 | x8 | D2 x6 | x3/2 D/ x6 | x8 | x8 || x8 | x4 | x4 | x8 | x8 | x8 | x8 | %15
w: claim|ing|||num-|the||||||||||
w: rock|un-|||on|bled||||||||||
w: dist-|in|||gent-|and||||||||||
w: mor-|oh,|||joy|èd||||||||||
 x8 | x8 |] %17
w: ||
w: ||
w: ||
w: ||
V:3
 [G,B,]2 [G,B,]2 [G,D]3 [G,C] | [G,B,]>[G,B,] [G,B,][G,D] [G,B,]2 [G,D]2 | %2
 [D,C]2 [D,C]2 [D,C]3 [D,B,] | [D,D]>[D,D] [D,D][D,C] [G,,G,B,]4 | [G,B,]2 [G,B,]2 [G,D]3 [G,C] | %5
 [G,B,]>[G,B,] [G,B,][G,D] [G,B,]2 [G,D]2 | [C,C]>[C,C] [C,C][C,C] [C,C]2 [C,D]>[C,C] | %7
 [D,B,]2 [D,A,]2 [G,,G,B,]4 || [D,D]2 [D,A,]>[D,A,] [D,A,]3 [D,D] | [G,D]>[G,C] [G,B,][G,C] | %10
 [G,D]2 [G,B,]2 | [D,D]2 [D,A,]>[D,A,] [D,A,]3 [G,B,] | A,>A, [A,,A,][A,,A,] [D,A,]4 | %13
 [G,B,]2 G,>[G,A,] [G,B,]3 [G,D] | [G,D]>[G,C] [G,B,][G,C] [G,D]2 [G,B,]2 | %15
 [C,C]>[C,C] [C,G,][C,G,] [G,,G,][G,,G,][E,G,][_E,G,] | [D,G,]2 [D,C]2 [G,,G,B,]4 |] %17
V:4
 x8 | x8 | x8 | x8 | x8 | x8 | x8 | x8 || x8 | x4 | x4 | x8 | A,>A, x6 | x2 G,3/2 x9/2 | x8 | x8 | %16
 x8 |] %17

